X: 8
T: The Hills Of Glenorchy
R: jig
M: 6/8
L: 1/8
K: Edor
d|BEE EFA|BAB d2B|AFD DED|FAA A2d|
BEE EFA|BAB d2B|Afd AFD|EFE E2:|
|:d|efe edB|efg f2e|ded dAF|ABA ABd
efe edB|efg faf|edB AFD|EFE E2:||


Tune 842	Setting 14008

